!!!SOCIAL_FUNCTION:	songs of games played in a ceremonial manner
!!!PDT:	1932
!!!OTL: No_22_Dancing_Song_from_the_South_God_(e).krn
!!!REG: Wisconsin
!!!LANG: Non-Tone
!!!LING_GROUP: Algonquin
**kern
*staff1
=1-
*clefF4
*k[f#c#]
*M3/8
8.A\L
16E\L
16E\JJ
16r
=2
8.F#\L
16D\L
16D\JJ
16r
=3
8.A\L
16E\L
16E\JJ
16r
=4!|:
*M2/4
12F#\L
12D\
12D\J
8.D\L
16D\Jk
=5
8D\L
8D\J
8D\
8r
=6
12F#\L
12D\
12D\J
8.D\L
16D\Jk
=7
8D\L
8D\J
8D\
8r
=8
12F#\L
12D\
12D\J
8.D\L
16D\Jk
=9
8D\L
8D\J
8D\
8r
==:|!
*-
